Simply-Red-Circles/scalable/apps/accessories-calculator.svg

<svg xmlns="http://www.w3.org/2000/svg" width="48" height="48" viewBox="0 0 12.7 12.7"><path fill="#a02c2c" d="M6.344.073a6.29 6.29 0 0 0-6.29 6.29 6.29 6.29 0 0 0 6.29 6.288 6.29 6.29 0 0 0 6.29-6.289 6.29 6.29 0 0 0-6.29-6.29zm-.018.936a5.407 5.407 0 0 1 5.407 5.407 5.407 5.407 0 0 1-5.407 5.407A5.407 5.407 0 0 1 .92 6.416 5.407 5.407 0 0 1 6.326 1.01zM3.64 2.516a.375.375 0 0 0-.376.376v6.916c0 .209.168.376.376.376h5.42a.375.375 0 0 0 .376-.376V2.892a.375.375 0 0 0-.376-.376H3.64zm.334.652h4.752c.126 0 .226.098.226.22v1.244c0 .122-.1.22-.226.22H3.974a.222.222 0 0 1-.226-.22V3.387c0-.121.1-.22.226-.22zm3.983 2.338h.725c.108 0 .194.088.194.196v.357a.195.195 0 0 1-.194.195h-.725a.195.195 0 0 1-.194-.195v-.357c0-.109.087-.196.194-.196zm-3.937 0h.544c.108 0 .195.088.195.196v.357a.195.195 0 0 1-.195.196H4.02a.196.196 0 0 1-.196-.196v-.357c0-.108.088-.195.196-.195zm2.62 0h.543c.109 0 .196.088.196.196v.357a.195.195 0 0 1-.196.196h-.544a.195.195 0 0 1-.195-.196v-.357c0-.108.087-.195.195-.195zm-1.31.001h.544c.108 0 .195.088.195.196v.357a.195.195 0 0 1-.195.195H5.33a.195.195 0 0 1-.196-.195v-.357c0-.109.087-.196.196-.196zM4.02 6.63h.544c.108 0 .195.087.195.196v.357a.195.195 0 0 1-.195.196H4.02a.196.196 0 0 1-.196-.196v-.357c0-.109.088-.196.196-.196zm2.62 0h.543c.109 0 .196.087.196.196v.357a.195.195 0 0 1-.196.196h-.544a.195.195 0 0 1-.195-.196v-.357c0-.109.087-.196.195-.196zm1.317 0h.725c.108 0 .194.087.194.196v.357a.195.195 0 0 1-.194.196h-.725a.195.195 0 0 1-.194-.196v-.357c0-.109.087-.196.194-.196zm-2.627 0h.544c.108 0 .195.088.195.196v.357a.195.195 0 0 1-.195.196H5.33a.195.195 0 0 1-.196-.196v-.357c0-.108.087-.195.196-.195zM4.02 7.753h.544c.108 0 .195.087.195.196v.356a.195.195 0 0 1-.195.196H4.02a.196.196 0 0 1-.196-.196v-.356c0-.109.088-.196.196-.196zm2.62 0h.543c.109 0 .196.087.196.196v.356a.195.195 0 0 1-.196.196h-.544a.195.195 0 0 1-.195-.196v-.356c0-.109.087-.196.195-.196zm1.317 0h.725c.108 0 .194.088.194.196v1.48a.195.195 0 0 1-.194.195h-.725a.195.195 0 0 1-.194-.196v-1.48c0-.108.087-.196.194-.196zm-2.627 0h.544c.108 0 .195.088.195.196v.357a.195.195 0 0 1-.195.196H5.33a.195.195 0 0 1-.196-.196v-.357c0-.108.087-.196.196-.196zm1.31 1.122h.543c.109 0 .196.088.196.197v.356a.195.195 0 0 1-.196.196h-.544a.196.196 0 0 1-.195-.196V9.07c0-.108.087-.196.195-.196zm-2.622 0h1.884c.108 0 .194.088.194.197v.356a.194.194 0 0 1-.194.196H4.018a.195.195 0 0 1-.194-.196v-.356c0-.109.086-.196.194-.196z"/></svg>

<?xml version="1.0" encoding="UTF-8" standalone="no"?>
<svg
   xmlns:dc="http://purl.org/dc/elements/1.1/"
   xmlns:cc="http://creativecommons.org/ns#"
   xmlns:rdf="http://www.w3.org/1999/02/22-rdf-syntax-ns#"
   xmlns:svg="http://www.w3.org/2000/svg"
   xmlns="http://www.w3.org/2000/svg"
   xmlns:sodipodi="http://sodipodi.sourceforge.net/DTD/sodipodi-0.dtd"
   xmlns:inkscape="http://www.inkscape.org/namespaces/inkscape"
   width="48"
   height="48"
   viewBox="0 0 12.7 12.7"
   version="1.1"
   id="svg4"
   sodipodi:docname="accessories-calculator.svg"
   inkscape:version="0.92.4 (5da689c313, 2019-01-14)">
  <metadata
     id="metadata10">
    <rdf:RDF>
      <cc:Work
         rdf:about="">
        <dc:format>image/svg+xml</dc:format>
        <dc:type
           rdf:resource="http://purl.org/dc/dcmitype/StillImage" />
        <dc:title></dc:title>
      </cc:Work>
    </rdf:RDF>
  </metadata>
  <defs
     id="defs8" />
  <sodipodi:namedview
     pagecolor="#ffffff"
     bordercolor="#666666"
     borderopacity="1"
     objecttolerance="10"
     gridtolerance="10"
     guidetolerance="10"
     inkscape:pageopacity="0"
     inkscape:pageshadow="2"
     inkscape:window-width="1087"
     inkscape:window-height="480"
     id="namedview6"
     showgrid="false"
     inkscape:zoom="4.9166667"
     inkscape:cx="2.1355932"
     inkscape:cy="24"
     inkscape:window-x="0"
     inkscape:window-y="25"
     inkscape:window-maximized="0"
     inkscape:current-layer="svg4" />
  <path
     d="m 6.344,0.073 a 6.29,6.29 0 0 0 -6.29,6.29 6.29,6.29 0 0 0 6.29,6.288 6.29,6.29 0 0 0 6.29,-6.289 6.29,6.29 0 0 0 -6.29,-6.29 z M 6.326,1.009 A 5.407,5.407 0 0 1 11.733,6.416 5.407,5.407 0 0 1 6.326,11.823 5.407,5.407 0 0 1 0.92,6.416 5.407,5.407 0 0 1 6.326,1.01 Z M 3.64,2.516 A 0.375,0.375 0 0 0 3.264,2.892 v 6.916 c 0,0.209 0.168,0.376 0.376,0.376 H 9.06 A 0.375,0.375 0 0 0 9.436,9.808 V 2.892 A 0.375,0.375 0 0 0 9.06,2.516 Z m 0.334,0.652 h 4.752 c 0.126,0 0.226,0.098 0.226,0.22 v 1.244 c 0,0.122 -0.1,0.22 -0.226,0.22 H 3.974 A 0.222,0.222 0 0 1 3.748,4.632 V 3.387 c 0,-0.121 0.1,-0.22 0.226,-0.22 z m 3.983,2.338 h 0.725 c 0.108,0 0.194,0.088 0.194,0.196 V 6.059 A 0.195,0.195 0 0 1 8.682,6.254 H 7.957 A 0.195,0.195 0 0 1 7.763,6.059 V 5.702 c 0,-0.109 0.087,-0.196 0.194,-0.196 z m -3.937,0 h 0.544 c 0.108,0 0.195,0.088 0.195,0.196 V 6.059 A 0.195,0.195 0 0 1 4.564,6.255 H 4.02 A 0.196,0.196 0 0 1 3.824,6.059 V 5.702 c 0,-0.108 0.088,-0.195 0.196,-0.195 z m 2.62,0 h 0.543 c 0.109,0 0.196,0.088 0.196,0.196 V 6.059 A 0.195,0.195 0 0 1 7.183,6.255 H 6.639 A 0.195,0.195 0 0 1 6.444,6.059 V 5.702 c 0,-0.108 0.087,-0.195 0.195,-0.195 z M 5.33,5.507 h 0.544 c 0.108,0 0.195,0.088 0.195,0.196 V 6.06 A 0.195,0.195 0 0 1 5.874,6.255 H 5.33 A 0.195,0.195 0 0 1 5.134,6.06 V 5.703 C 5.134,5.594 5.221,5.507 5.33,5.507 Z M 4.02,6.63 h 0.544 c 0.108,0 0.195,0.087 0.195,0.196 V 7.183 A 0.195,0.195 0 0 1 4.564,7.379 H 4.02 A 0.196,0.196 0 0 1 3.824,7.183 V 6.826 C 3.824,6.717 3.912,6.63 4.02,6.63 Z m 2.62,0 h 0.543 c 0.109,0 0.196,0.087 0.196,0.196 V 7.183 A 0.195,0.195 0 0 1 7.183,7.379 H 6.639 A 0.195,0.195 0 0 1 6.444,7.183 V 6.826 C 6.444,6.717 6.531,6.63 6.639,6.63 Z m 1.317,0 h 0.725 c 0.108,0 0.194,0.087 0.194,0.196 V 7.183 A 0.195,0.195 0 0 1 8.682,7.379 H 7.957 A 0.195,0.195 0 0 1 7.763,7.183 V 6.826 C 7.763,6.717 7.85,6.63 7.957,6.63 Z m -2.627,0 h 0.544 c 0.108,0 0.195,0.088 0.195,0.196 V 7.183 A 0.195,0.195 0 0 1 5.874,7.379 H 5.33 A 0.195,0.195 0 0 1 5.134,7.183 V 6.826 C 5.134,6.718 5.221,6.631 5.33,6.631 Z M 4.02,7.753 h 0.544 c 0.108,0 0.195,0.087 0.195,0.196 V 8.305 A 0.195,0.195 0 0 1 4.564,8.501 H 4.02 A 0.196,0.196 0 0 1 3.824,8.305 V 7.949 C 3.824,7.84 3.912,7.753 4.02,7.753 Z m 2.62,0 h 0.543 c 0.109,0 0.196,0.087 0.196,0.196 V 8.305 A 0.195,0.195 0 0 1 7.183,8.501 H 6.639 A 0.195,0.195 0 0 1 6.444,8.305 V 7.949 c 0,-0.109 0.087,-0.196 0.195,-0.196 z m 1.317,0 h 0.725 c 0.108,0 0.194,0.088 0.194,0.196 v 1.48 A 0.195,0.195 0 0 1 8.682,9.624 H 7.957 A 0.195,0.195 0 0 1 7.763,9.428 V 7.948 C 7.763,7.84 7.85,7.752 7.957,7.752 Z m -2.627,0 h 0.544 c 0.108,0 0.195,0.088 0.195,0.196 V 8.306 A 0.195,0.195 0 0 1 5.874,8.502 H 5.33 A 0.195,0.195 0 0 1 5.134,8.306 V 7.949 c 0,-0.108 0.087,-0.196 0.196,-0.196 z m 1.31,1.122 h 0.543 c 0.109,0 0.196,0.088 0.196,0.197 V 9.428 A 0.195,0.195 0 0 1 7.183,9.624 H 6.639 A 0.196,0.196 0 0 1 6.444,9.428 V 9.07 c 0,-0.108 0.087,-0.196 0.195,-0.196 z m -2.622,0 h 1.884 c 0.108,0 0.194,0.088 0.194,0.197 V 9.428 A 0.194,0.194 0 0 1 5.902,9.624 H 4.018 A 0.195,0.195 0 0 1 3.824,9.428 V 9.072 c 0,-0.109 0.086,-0.196 0.194,-0.196 z"
     id="path2"
     inkscape:connector-curvature="0"
     style="fill:#a02c2c" />
</svg>
